X:172
T:Miss Buckley’s Delight. JGi.172
M:6/8
L:1/8
Q:3/8=110
S:Joshua Gibbons MS,1823,Tealby,Lincs.
N:Spare bar in the A?
R:jig
O:Tealby,Lincolnshire
Z:VMP/R.Greig, 2009
K:C
G|ceG ceG|gecc2c|agf edc|BdGG2G|
ceGG2G|ceG ceG|gecc2c|Bcd GAB|c2ec2:|
|:G|ceee2d|cegg2a|gec’ gec|Bddd2G|
ceee2d|cegg2a|agf edc|g3-g2″D Cap”|]

